X:3
T:North Star, The
R:jig
M:6/8
L:1/8
K:Gmaj
V:1
G2D G B/2c/2d|cBG dBG|~E3 dBG|F2d cde|
G2D G B/2c/2d|cBG dBG|EGd ~F2d|1~G3 dBA:|2~G3 GAB||
G2F G2d|ABF G2D|EFG Adc-|cBG ADB|
G2F G2d|ABF G2D|EFG ADF|G2B DAD|
G2F G2d|ABF G2D|EFG Adc-|cBG ADB|
G2F G2d|dcB G2D|EFG ADF|G2z dBA||
V:2
B2F B d/2e/2f|edB fdB|~G3 fdB|A2f efg|
B2F B d/2e/2f|edB fdB|GBf ~A2f|1~B3 fdc:|2~B3 Bcd||
B2A B2f|cdA B2F|GAB cfe-|edB cFd|
B2A B2f|cdA B2F|GAB cFA|B2d FcF|
B2A B2f|cdA B2F|GAB cfe-|edB cFd|
B2A B2f|fed B2F|GAB cFA|B2z fdc||
